packages/components/src/product-icon/images/jetpack-backup-v2-darkblue.svg

<svg width="55" height="55" viewBox="0 0 55 55" fill="none" xmlns="http://www.w3.org/2000/svg">
<ellipse cx="27.5" cy="27.7024" rx="27.5" ry="27.2308" fill="#2271B1"/>
<path fill-rule="evenodd" clip-rule="evenodd" d="M35.4688 24.9754C35.4788 24.9742 35.4875 24.9717 35.5 24.9717C38.95 24.9717 41.75 27.7717 41.75 31.2217C41.75 33.2754 40.745 35.0842 39.2162 36.2217H15.975C14.925 35.3054 14.25 33.9742 14.25 32.4717C14.25 29.7092 16.4875 27.4717 19.25 27.4717C19.2978 27.4717 19.3434 27.4784 19.3892 27.4851C19.42 27.4896 19.4508 27.4942 19.4825 27.4967C19.3375 26.8842 19.25 26.2517 19.25 25.5967C19.25 21.1092 22.8875 17.4717 27.375 17.4717C31.6525 17.4717 35.15 20.7792 35.4688 24.9754ZM29.25 33.7217V29.9717H33L28 23.7217L23 29.9717H26.75V33.7217H29.25Z" fill="black"/>
<mask id="mask0" mask-type="alpha" maskUnits="userSpaceOnUse" x="14" y="17" width="28" height="20">
<path fill-rule="evenodd" clip-rule="evenodd" d="M35.4688 24.9754C35.4788 24.9742 35.4875 24.9717 35.5 24.9717C38.95 24.9717 41.75 27.7717 41.75 31.2217C41.75 33.2754 40.745 35.0842 39.2162 36.2217H15.975C14.925 35.3054 14.25 33.9742 14.25 32.4717C14.25 29.7092 16.4875 27.4717 19.25 27.4717C19.2978 27.4717 19.3434 27.4784 19.3892 27.4851C19.42 27.4896 19.4508 27.4942 19.4825 27.4967C19.3375 26.8842 19.25 26.2517 19.25 25.5967C19.25 21.1092 22.8875 17.4717 27.375 17.4717C31.6525 17.4717 35.15 20.7792 35.4688 24.9754ZM29.25 33.7217V29.9717H33L28 23.7217L23 29.9717H26.75V33.7217H29.25Z" fill="white"/>
</mask>
<g mask="url(#mask0)">
<rect x="13" y="12.4717" width="30" height="30" fill="white"/>
</g>
</svg>

<svg width="55" height="55" fill="none" xmlns="http://www.w3.org/2000/svg"><ellipse cx="27.5" cy="27.702" rx="27.5" ry="27.231" fill="#055d9c"/><path fill-rule="evenodd" clip-rule="evenodd" d="M35.469 24.975c.01 0 .018-.003.031-.003 3.45 0 6.25 2.8 6.25 6.25 0 2.053-1.005 3.862-2.534 5H15.975c-1.05-.917-1.725-2.248-1.725-3.75 0-2.763 2.238-5 5-5 .048 0 .093.006.14.013.03.005.06.01.093.012a8.22 8.22 0 01-.233-1.9 8.125 8.125 0 018.125-8.125c4.277 0 7.775 3.307 8.094 7.503zm-6.219 8.747v-3.75H33l-5-6.25-5 6.25h3.75v3.75h2.5z" fill="#101517"/><mask id="a" maskUnits="userSpaceOnUse" x="14" y="17" width="28" height="20"><path fill-rule="evenodd" clip-rule="evenodd" d="M35.469 24.975c.01 0 .018-.003.031-.003 3.45 0 6.25 2.8 6.25 6.25 0 2.053-1.005 3.862-2.534 5H15.975c-1.05-.917-1.725-2.248-1.725-3.75 0-2.763 2.238-5 5-5 .048 0 .093.006.14.013.03.005.06.01.093.012a8.22 8.22 0 01-.233-1.9 8.125 8.125 0 018.125-8.125c4.277 0 7.775 3.307 8.094 7.503zm-6.219 8.747v-3.75H33l-5-6.25-5 6.25h3.75v3.75h2.5z" fill="#fff"/></mask><g mask="url(#a)"><path fill="#fff" d="M13 12.472h30v30H13z"/></g></svg>
